packages/icons/raw/imported/GenericGlobe.svg

<svg width="32" height="32" viewBox="0 0 32 32" fill="none" xmlns="http://www.w3.org/2000/svg">
<path d="M25.5 16C25.5 21.2467 21.2467 25.5 16 25.5M25.5 16C25.5 10.7533 21.2467 6.5 16 6.5M25.5 16H6.5M16 25.5C10.7533 25.5 6.5 21.2467 6.5 16M16 25.5V6.5M16 25.5C18.9148 25.5 21.2778 21.2467 21.2778 16M16 25.5C13.0852 25.5 10.7222 21.2467 10.7222 16M6.5 16C6.5 10.7533 10.7533 6.5 16 6.5M16 6.5C13.0852 6.5 10.7222 10.7533 10.7222 16M16 6.5C18.9148 6.5 21.2778 10.7533 21.2778 16M21.2778 16H10.7222" stroke="black"/>
</svg>

<svg width="32" height="32" fill="none" xmlns="http://www.w3.org/2000/svg"><path d="M25.5 16a9.5 9.5 0 0 1-9.5 9.5m9.5-9.5A9.5 9.5 0 0 0 16 6.5m9.5 9.5h-19m9.5 9.5A9.5 9.5 0 0 1 6.5 16m9.5 9.5v-19m0 19c2.915 0 5.278-4.253 5.278-9.5M16 25.5c-2.915 0-5.278-4.253-5.278-9.5M6.5 16A9.5 9.5 0 0 1 16 6.5m0 0c-2.915 0-5.278 4.253-5.278 9.5M16 6.5c2.915 0 5.278 4.253 5.278 9.5m0 0H10.722" stroke="#000"/></svg>
